;FLAVOR:Marlin
;TIME:2828
;Filament used: 2.53868m
;Layer height: 0.2
;MINX:81.758
;MINY:81.504
;MINZ:0.2
;MAXX:138.242
;MAXY:138.495
;MAXZ:20
;Generated with Cura_SteamEngine 4.4.0
M140 S60
M105
M190 S60
M104 S200
M105
M109 S200
M82 ;absolute extrusion mode
M201 X500.00 Y500.00 Z100.00 E5000.00 ;Setup machine max acceleration
M203 X500.00 Y500.00 Z10.00 E50.00 ;Setup machine max feedrate
M204 P500.00 R1000.00 T500.00 ;Setup Print/Retract/Travel acceleration
M205 X8.00 Y8.00 Z0.40 E5.00 ;Setup Jerk
M220 S100 ;Reset Feedrate
M221 S100 ;Reset Flowrate

G28 ;Home

G92 E0 ;Reset Extruder
G1 Z2.0 F3000 ;Move Z Axis up
G1 X10.1 Y20 Z0.28 F5000.0 ;Move to start position
G1 X10.1 Y200.0 Z0.28 F1500.0 E15 ;Draw the first line
G1 X10.4 Y200.0 Z0.28 F5000.0 ;Move to side a little
G1 X10.4 Y20 Z0.28 F1500.0 E30 ;Draw the second line
G92 E0 ;Reset Extruder
G1 Z2.0 F3000 ;Move Z Axis up

G92 E0
G92 E0
G1 F1500 E-5
;LAYER_COUNT:100
;LAYER:0
M107
G0 F6000 X85.891 Y85.296 Z0.2
;TYPE:SKIRT
G1 F1500 E0
G1 F1200 X86.166 Y85.04 E0.0125
G1 X87.026 Y84.317 E0.04987
G1 X87.268 Y84.134 E0.05996
G1 X88.04 Y83.601 E0.09116
G1 X88.851 Y83.137 E0.12224
G1 X89.174 Y82.97 E0.13433
G1 X90.23 Y82.492 E0.17288
G1 X90.566 Y82.361 E0.18488
G1 X91.454 Y82.058 E0.21608
G1 X92.421 Y81.82 E0.24921
G1 X92.799 Y81.745 E0.26202
G1 X94.078 Y81.569 E0.30496
G1 X94.307 Y81.551 E0.3126
G1 X94.918 Y81.52 E0.33295
G1 X95.399 Y81.509 E0.34896
G1 X95.649 Y81.506 E0.35727
G1 X124.135 Y81.504 E1.30472
G1 X124.249 Y81.505 E1.30851
G1 X124.737 Y81.51 E1.32474
G1 X125.028 Y81.516 E1.33442
G1 X125.3 Y81.526 E1.34348
G1 X126.676 Y81.664 E1.38947
G1 X127.109 Y81.735 E1.40407
G1 X128.243 Y81.983 E1.44267
G1 X128.476 Y82.047 E1.45071
G1 X129.553 Y82.404 E1.48845
G1 X129.779 Y82.492 E1.49652
G1 X130.707 Y82.903 E1.53027
G1 X130.941 Y83.02 E1.53897
G1 X132.074 Y83.673 E1.58247
G1 X132.244 Y83.785 E1.58924
G1 X132.961 Y84.3 E1.6186
G1 X133.157 Y84.453 E1.62687
G1 X133.871 Y85.061 E1.65806
G1 X134.307 Y85.489 E1.67838
G1 X134.549 Y85.74 E1.68998
G1 X135.353 Y86.673 E1.73094
G1 X135.552 Y86.932 E1.74181
G1 X136.091 Y87.699 E1.77299
G1 X136.365 Y88.15 E1.79054
G1 X136.545 Y88.463 E1.80255
G1 X136.977 Y89.295 E1.83373
G1 X137.229 Y89.88 E1.85491
G1 X137.346 Y90.174 E1.86544
G1 X137.656 Y91.059 E1.89663
G1 X137.869 Y91.877 E1.92474
G1 X137.961 Y92.295 E1.93898
G1 X138.16 Y93.529 E1.98055
G1 X138.185 Y93.771 E1.98864
G1 X138.242 Y95.031 E2.03059
G1 X138.239 Y95.285 E2.03904
G1 X138.222 Y95.777 E2.05541
G1 X138.207 Y96.042 E2.06424
G1 X138.182 Y96.395 E2.07601
G1 X138.032 Y98.081 E2.13231
G1 X138.029 Y98.111 E2.13331
G1 X135.517 Y125.495 E3.04793
G1 X135.502 Y125.647 E3.05301
G1 X135.416 Y126.46 E3.0802
G1 X135.313 Y127.197 E3.10496
G1 X135.27 Y127.443 E3.11326
G1 X135.059 Y128.396 E3.14573
G1 X135.003 Y128.605 E3.15292
G1 X134.666 Y129.651 E3.18947
G1 X134.582 Y129.873 E3.19737
G1 X134.213 Y130.735 E3.22856
G1 X133.984 Y131.186 E3.24538
G1 X133.789 Y131.549 E3.25908
G1 X133.311 Y132.355 E3.29025
G1 X132.776 Y133.104 E3.32087
G1 X132.515 Y133.439 E3.33499
G1 X131.713 Y134.358 E3.37556
G1 X131.556 Y134.519 E3.38304
G1 X130.583 Y135.404 E3.42678
G1 X130.377 Y135.57 E3.43558
G1 X129.622 Y136.127 E3.46679
G1 X129.167 Y136.418 E3.48475
G1 X128.78 Y136.652 E3.49979
G1 X127.957 Y137.103 E3.53101
G1 X127.385 Y137.365 E3.55193
G1 X127.18 Y137.452 E3.55934
G1 X125.917 Y137.899 E3.6039
G1 X125.565 Y138 E3.61608
G1 X124.653 Y138.22 E3.64728
G1 X123.684 Y138.366 E3.67988
G1 X123.257 Y138.411 E3.69416
G1 X122.329 Y138.47 E3.72509
G1 X121.203 Y138.493 E3.76255
G1 X120.977 Y138.495 E3.77006
G1 X98.612 Y138.493 E4.51393
G1 X98.458 Y138.492 E4.51905
G1 X97.748 Y138.482 E4.54266
G1 X97.009 Y138.447 E4.56727
G1 X96.776 Y138.428 E4.57505
G1 X95.845 Y138.312 E4.60625
G1 X95.193 Y138.181 E4.62837
G1 X94.782 Y138.086 E4.6424
G1 X93.583 Y137.737 E4.68393
G1 X93.363 Y137.659 E4.6917
G1 X92.493 Y137.308 E4.7229
G1 X91.772 Y136.948 E4.7497
G1 X91.343 Y136.714 E4.76596
G1 X90.19 Y135.989 E4.81126
G1 X89.966 Y135.828 E4.82043
G1 X88.984 Y135.033 E4.86246
G1 X88.829 Y134.892 E4.86942
G1 X87.868 Y133.901 E4.91534
G1 X87.645 Y133.64 E4.92676
G1 X87.067 Y132.901 E4.95796
G1 X86.526 Y132.07 E4.99094
G1 X86.259 Y131.616 E5.00846
G1 X85.819 Y130.788 E5.03964
G1 X85.406 Y129.806 E5.07508
G1 X85.273 Y129.441 E5.088
G1 X84.99 Y128.547 E5.11919
G1 X84.869 Y128.055 E5.13604
G1 X84.785 Y127.676 E5.14895
G1 X84.605 Y126.624 E5.18445
G1 X84.564 Y126.287 E5.19574
G1 X84.538 Y126.06 E5.20334
G1 X84.505 Y125.732 E5.2143
G1 X84.495 Y125.619 E5.21808
G1 X84.423 Y124.821 E5.24473
G1 X81.854 Y96.769 E6.18164
G1 X81.84 Y96.603 E6.18718
G1 X81.79 Y95.948 E6.20903
G1 X81.758 Y95.018 E6.23998
G1 X81.76 Y94.782 E6.24783
G1 X81.817 Y93.758 E6.28194
G1 X81.846 Y93.474 E6.29144
G1 X81.981 Y92.545 E6.32266
G1 X82.169 Y91.726 E6.35061
G1 X82.278 Y91.322 E6.36453
G1 X82.669 Y90.142 E6.40587
G1 X82.756 Y89.922 E6.41374
G1 X83.146 Y89.048 E6.44557
G1 X83.249 Y88.842 E6.45323
G1 X83.704 Y88.021 E6.48445
G1 X84.16 Y87.335 E6.51185
G1 X84.458 Y86.921 E6.52882
G1 X85.038 Y86.184 E6.56001
G1 X85.891 Y85.296 E6.60096
G0 F6000 X86.163 Y85.588
G1 F1200 X86.438 Y85.332 E6.61346
G1 X87.268 Y84.636 E6.64949
G1 X87.51 Y84.453 E6.65958
G1 X88.267 Y83.93 E6.69018
G1 X89.035 Y83.492 E6.71959
G1 X89.358 Y83.325 E6.73168
G1 X90.376 Y82.865 E6.76884
G1 X90.712 Y82.734 E6.78083
G1 X91.583 Y82.437 E6.81144
G1 X92.499 Y82.213 E6.8428
G1 X92.877 Y82.138 E6.85562
G1 X94.109 Y81.968 E6.89699
G1 X94.338 Y81.95 E6.90463
G1 X94.927 Y81.92 E6.92424
G1 X95.408 Y81.909 E6.94024
G1 X95.649 Y81.906 E6.94826
G1 X124.135 Y81.904 E7.89571
G1 X124.245 Y81.905 E7.89937
G1 X124.733 Y81.91 E7.9156
G1 X125.013 Y81.916 E7.92491
G1 X125.285 Y81.926 E7.93397
G1 X126.611 Y82.059 E7.97829
G1 X127.044 Y82.13 E7.99288
G1 X128.137 Y82.369 E8.0301
G1 X128.37 Y82.433 E8.03813
G1 X129.408 Y82.776 E8.07449
G1 X129.634 Y82.864 E8.08256
G1 X130.528 Y83.261 E8.11509
G1 X130.762 Y83.378 E8.1238
G1 X131.854 Y84.007 E8.16571
G1 X132.024 Y84.119 E8.17248
G1 X132.715 Y84.615 E8.20077
G1 X132.911 Y84.768 E8.20904
G1 X133.611 Y85.366 E8.23966
G1 X134.019 Y85.767 E8.25869
G1 X134.261 Y86.018 E8.27029
G1 X135.035 Y86.917 E8.30974
G1 X135.234 Y87.176 E8.32061
G1 X135.763 Y87.929 E8.35121
G1 X136.018 Y88.35 E8.36759
G1 X136.198 Y88.663 E8.37959
G1 X136.622 Y89.48 E8.41021
G1 X136.858 Y90.028 E8.43005
G1 X136.975 Y90.322 E8.44058
G1 X137.278 Y91.191 E8.47119
G1 X137.478 Y91.963 E8.49771
G1 X137.57 Y92.381 E8.51195
G1 X137.762 Y93.57 E8.55201
G1 X137.787 Y93.812 E8.5601
G1 X137.842 Y95.026 E8.60052
G1 X137.839 Y95.28 E8.60897
G1 X137.823 Y95.754 E8.62474
G1 X137.808 Y96.019 E8.63357
G1 X137.783 Y96.359 E8.64491
G1 X137.633 Y98.045 E8.70121
G1 X137.631 Y98.074 E8.70217
G1 X135.119 Y125.458 E9.61679
G1 X135.104 Y125.605 E9.62171
G1 X135.018 Y126.418 E9.6489
G1 X134.919 Y127.128 E9.67274
G1 X134.876 Y127.374 E9.68105
G1 X134.673 Y128.292 E9.71232
G1 X134.617 Y128.501 E9.71951
G1 X134.292 Y129.509 E9.75474
G1 X134.208 Y129.731 E9.76263
G1 X133.845 Y130.577 E9.79325
G1 X133.632 Y130.996 E9.80889
G1 X133.437 Y131.359 E9.82259
G1 X132.966 Y132.151 E9.85324
G1 X132.461 Y132.858 E9.88214
G1 X132.2 Y133.193 E9.89626
G1 X131.427 Y134.078 E9.93534
G1 X131.27 Y134.239 E9.94282
G1 X130.332 Y135.093 E9.98502
G1 X130.126 Y135.259 E9.99382
G1 X129.385 Y135.805 E10.02443
G1 X128.96 Y136.076 E10.04119
G1 X128.573 Y136.31 E10.05624
G1 X127.765 Y136.751 E10.08685
G1 X127.229 Y136.997 E10.10647
G1 X127.024 Y137.084 E10.11387
G1 X125.807 Y137.515 E10.15682
G1 X125.455 Y137.616 E10.16899
G1 X124.559 Y137.831 E10.19964
G1 X123.642 Y137.969 E10.23048
G1 X123.215 Y138.014 E10.24477
G1 X122.32 Y138.07 E10.27459
G1 X121.194 Y138.093 E10.31205
G1 X120.977 Y138.095 E10.31927
G1 X98.612 Y138.093 E11.06313
G1 X98.464 Y138.092 E11.06805
G1 X97.754 Y138.082 E11.09167
G1 X97.041 Y138.048 E11.11541
G1 X96.808 Y138.029 E11.12319
G1 X95.895 Y137.914 E11.15379
G1 X95.283 Y137.792 E11.17455
G1 X94.872 Y137.697 E11.18858
G1 X93.717 Y137.36 E11.2286
G1 X93.497 Y137.282 E11.23636
G1 X92.643 Y136.937 E11.267
G1 X91.963 Y136.597 E11.29228
G1 X91.534 Y136.363 E11.30853
G1 X90.423 Y135.664 E11.35219
G1 X90.199 Y135.503 E11.36137
G1 X89.253 Y134.737 E11.40185
G1 X89.098 Y134.596 E11.40882
G1 X88.172 Y133.641 E11.45307
G1 X87.949 Y133.38 E11.46448
G1 X87.382 Y132.654 E11.49512
G1 X86.871 Y131.868 E11.5263
G1 X86.604 Y131.414 E11.54382
G1 X86.172 Y130.6 E11.57447
G1 X85.782 Y129.669 E11.60804
G1 X85.649 Y129.304 E11.62096
G1 X85.371 Y128.426 E11.6516
G1 X85.259 Y127.969 E11.66725
G1 X85.175 Y127.59 E11.68016
G1 X85.002 Y126.576 E11.71437
G1 X84.961 Y126.239 E11.72566
G1 X84.936 Y126.02 E11.73299
G1 X84.903 Y125.692 E11.74396
G1 X84.893 Y125.584 E11.74756
G1 X84.821 Y124.786 E11.77421
G1 X82.252 Y96.733 E12.71116
G1 X82.239 Y96.573 E12.7165
G1 X82.189 Y95.918 E12.73835
G1 X82.158 Y95.021 E12.7682
G1 X82.16 Y94.785 E12.77605
G1 X82.215 Y93.798 E12.80893
G1 X82.244 Y93.514 E12.81843
G1 X82.377 Y92.603 E12.84905
G1 X82.555 Y91.83 E12.87543
G1 X82.664 Y91.426 E12.88935
G1 X83.041 Y90.289 E12.92919
G1 X83.128 Y90.069 E12.93706
G1 X83.504 Y89.227 E12.96773
G1 X83.607 Y89.021 E12.97539
G1 X84.054 Y88.216 E13.00602
G1 X84.485 Y87.568 E13.0319
G1 X84.783 Y87.154 E13.04887
G1 X85.353 Y86.431 E13.07949
G1 X86.163 Y85.588 E13.11837
G0 F6000 X86.436 Y85.881
G1 F1200 X86.711 Y85.625 E13.13087
G1 X87.509 Y84.955 E13.16552
G1 X87.751 Y84.772 E13.17562
G1 X88.495 Y84.26 E13.20565
G1 X89.218 Y83.847 E13.23335
G1 X89.541 Y83.68 E13.24544
G1 X90.521 Y83.238 E13.2812
G1 X90.857 Y83.107 E13.29319
G1 X91.712 Y82.816 E13.32323
G1 X92.577 Y82.605 E13.35285
G1 X92.955 Y82.53 E13.36566
G1 X94.141 Y82.366 E13.40549
G1 X94.37 Y82.348 E13.41313
G1 X94.936 Y82.32 E13.43197
G1 X95.417 Y82.309 E13.44798
G1 X95.649 Y82.306 E13.45569
G1 X124.135 Y82.304 E14.40314
G1 X124.241 Y82.305 E14.40667
G1 X124.729 Y82.31 E14.4229
G1 X124.999 Y82.316 E14.43188
G1 X125.271 Y82.326 E14.44093
G1 X126.546 Y82.453 E14.48355
G1 X126.979 Y82.524 E14.49815
G1 X128.031 Y82.754 E14.53396
G1 X128.264 Y82.818 E14.542
G1 X129.263 Y83.149 E14.577
G1 X129.489 Y83.237 E14.58507
G1 X130.35 Y83.619 E14.6164
G1 X130.584 Y83.736 E14.6251
G1 X131.634 Y84.341 E14.6654
G1 X131.804 Y84.453 E14.67217
G1 X132.468 Y84.931 E14.69939
G1 X132.664 Y85.084 E14.70766
G1 X133.351 Y85.67 E14.73769
G1 X133.731 Y86.044 E14.75542
G1 X133.973 Y86.295 E14.76702
G1 X134.718 Y87.16 E14.80499
G1 X134.917 Y87.419 E14.81585
G1 X135.435 Y88.159 E14.8459
G1 X135.671 Y88.549 E14.86106
G1 X135.851 Y88.862 E14.87307
G1 X136.266 Y89.664 E14.9031
G1 X136.486 Y90.175 E14.92161
G1 X136.603 Y90.469 E14.93213
G1 X136.9 Y91.323 E14.9622
G1 X137.088 Y92.049 E14.98715
G1 X137.18 Y92.467 E15.00138
G1 X137.364 Y93.611 E15.03992
G1 X137.389 Y93.853 E15.04801
G1 X137.442 Y95.021 E15.0869
G1 X137.439 Y95.275 E15.09535
G1 X137.424 Y95.731 E15.11052
G1 X137.409 Y95.996 E15.11935
G1 X137.385 Y96.324 E15.13029
G1 X137.235 Y98.01 E15.18659
G1 X137.232 Y98.038 E15.18752
G1 X134.72 Y125.422 E16.10214
G1 X134.706 Y125.563 E16.10686
G1 X134.62 Y126.376 E16.13405
G1 X134.525 Y127.059 E16.15698
G1 X134.482 Y127.305 E16.16529
G1 X134.286 Y128.189 E16.19541
G1 X134.23 Y128.398 E16.2026
G1 X133.918 Y129.368 E16.23649
G1 X133.834 Y129.59 E16.24439
G1 X133.28 Y130.807 E16.28886
G1 X133.085 Y131.17 E16.30257
G1 X132.622 Y131.946 E16.33262
G1 X132.145 Y132.612 E16.35987
G1 X131.884 Y132.947 E16.37399
G1 X131.141 Y133.799 E16.41159
G1 X130.984 Y133.96 E16.41907
G1 X130.081 Y134.781 E16.45966
G1 X129.875 Y134.947 E16.46846
G1 X129.147 Y135.482 E16.49851
G1 X128.753 Y135.733 E16.51405
G1 X128.366 Y135.967 E16.52909
G1 X127.573 Y136.4 E16.55914
G1 X127.073 Y136.628 E16.57742
G1 X126.868 Y136.715 E16.58483
G1 X125.696 Y137.13 E16.62618
G1 X125.344 Y137.231 E16.63836
G1 X124.466 Y137.442 E16.66839
G1 X123.6 Y137.571 E16.69751
G1 X123.173 Y137.616 E16.71179
G1 X122.312 Y137.67 E16.74049
G1 X121.186 Y137.693 E16.77795
G1 X120.977 Y137.695 E16.7849
G1 X98.612 Y137.693 E17.52876
G1 X98.469 Y137.692 E17.53352
G1 X97.759 Y137.682 E17.55713
G1 X97.074 Y137.649 E17.57994
G1 X96.841 Y137.63 E17.58772
G1 X95.945 Y137.517 E17.61776
G1 X95.373 Y137.402 E17.63716
G1 X94.962 Y137.307 E17.65119
G1 X93.851 Y136.983 E17.68968
G1 X93.631 Y136.905 E17.69745
G1 X92.794 Y136.565 E17.72749
G1 X92.155 Y136.246 E17.75125
G1 X91.726 Y136.012 E17.7675
G1 X90.657 Y135.34 E17.8095
G1 X90.433 Y135.179 E17.81867
G1 X89.522 Y134.441 E17.85767
G1 X89.367 Y134.3 E17.86464
G1 X88.476 Y133.381 E17.90721
G1 X88.253 Y133.12 E17.91863
G1 X87.697 Y132.408 E17.94868
G1 X87.216 Y131.665 E17.97811
G1 X86.949 Y131.211 E17.99563
G1 X86.526 Y130.413 E18.02567
G1 X86.157 Y129.532 E18.05744
G1 X86.024 Y129.167 E18.07036
G1 X85.65 Y127.882 E18.11487
G1 X85.566 Y127.503 E18.12779
G1 X85.399 Y126.528 E18.16069
G1 X85.358 Y126.191 E18.17198
G1 X85.334 Y125.98 E18.17904
G1 X85.301 Y125.652 E18.19001
G1 X85.291 Y125.548 E18.19348
G1 X85.219 Y124.75 E18.22013
G1 X82.65 Y96.696 E19.15711
G1 X82.638 Y96.542 E19.16225
G1 X82.588 Y95.887 E19.1841
G1 X82.558 Y95.025 E19.21279
G1 X82.56 Y94.789 E19.22064
G1 X82.613 Y93.839 E19.25228
G1 X82.642 Y93.555 E19.26178
G1 X82.773 Y92.661 E19.29183
G1 X82.941 Y91.934 E19.31665
G1 X83.05 Y91.53 E19.33057
G1 X83.413 Y90.436 E19.3689
G1 X83.5 Y90.216 E19.37677
G1 X83.862 Y89.405 E19.40631
G1 X83.965 Y89.199 E19.41397
G1 X84.404 Y88.41 E19.444
G1 X84.81 Y87.802 E19.46832
G1 X85.108 Y87.388 E19.48528
G1 X85.667 Y86.679 E19.51531
G1 X86.436 Y85.881 E19.55217
G1 F1500 E14.55217
;MESH:solder_fingers.stl
G0 F6000 X93.093 Y92.686
G0 X93.806 Y93.501
G0 X97.114 Y125.289
G0 X97.402 Y125.71
G0 X97.828 Y125.894
G0 X122.119 Y126.089
;TYPE:WALL-INNER
G1 F1500 E19.55217
G1 F1200 X121.953 Y126.095 E19.5577
G1 X97.965 Y126.093 E20.35554
G1 X97.85 Y126.084 E20.35938
G1 X97.751 Y126.067 E20.36272
G1 X97.665 Y126.044 E20.36568
G1 X97.557 Y126.002 E20.36953
G1 X97.466 Y125.958 E20.3729
G1 X97.37 Y125.9 E20.37663
G1 X97.294 Y125.842 E20.37981
G1 X97.23 Y125.786 E20.38264
G1 X97.169 Y125.72 E20.38562
G1 X97.098 Y125.629 E20.38946
G1 X97.045 Y125.547 E20.39271
G1 X97 Y125.46 E20.39597
G1 X96.953 Y125.345 E20.4001
G1 X96.926 Y125.259 E20.4031
G1 X96.91 Y125.176 E20.40591
G1 X96.889 Y124.981 E20.41243
G1 X96.763 Y123.621 E20.45786
G1 X94.147 Y95.046 E21.41224
G1 X94.15 Y94.937 E21.41587
G1 X94.163 Y94.813 E21.42002
G1 X94.182 Y94.726 E21.42298
G1 X94.208 Y94.642 E21.4259
G1 X94.255 Y94.528 E21.43
G1 X94.3 Y94.441 E21.43326
G1 X94.357 Y94.356 E21.43667
G1 X94.409 Y94.29 E21.43946
G1 X94.473 Y94.222 E21.44257
G1 X94.564 Y94.143 E21.44658
G1 X94.627 Y94.097 E21.44917
G1 X94.723 Y94.04 E21.45288
G1 X94.837 Y93.984 E21.45711
G1 X94.904 Y93.96 E21.45947
G1 X95.032 Y93.927 E21.46387
G1 X95.109 Y93.914 E21.46647
G1 X95.23 Y93.906 E21.4705
G1 X124.634 Y93.904 E22.44848
G1 X124.816 Y93.909 E22.45454
G1 X124.922 Y93.919 E22.45808
G1 X125.014 Y93.938 E22.4612
G1 X125.121 Y93.97 E22.46492
G1 X125.223 Y94.011 E22.46857
G1 X125.302 Y94.052 E22.47154
G1 X125.449 Y94.152 E22.47745
G1 X125.549 Y94.246 E22.48201
G1 X125.61 Y94.314 E22.48505
G1 X125.668 Y94.392 E22.48828
G1 X125.72 Y94.478 E22.49163
G1 X125.764 Y94.568 E22.49496
G1 X125.797 Y94.656 E22.49809
G1 X125.823 Y94.752 E22.50139
G1 X125.854 Y94.951 E22.50809
G1 X125.85 Y95.103 E22.51315
G1 X125.682 Y96.98 E22.57583
G1 X123.11 Y125.024 E23.51249
G1 X123.083 Y125.213 E23.51884
G1 X123.064 Y125.293 E23.52157
G1 X123.021 Y125.417 E23.52594
G1 X122.993 Y125.48 E23.52823
G1 X122.941 Y125.573 E23.53178
G1 X122.878 Y125.665 E23.53549
